X:1
T:[ID 1-49]
T:[ID 1-49]
T:Bezeichnung standardisiert: Polonaise Polonese:
T:Urheber unbekannt Datum in der hier transkribierten schriftlichen Quelle: vermutlich vor 1767
C:Urheber unbekannt
C:Datum in der hier transkribierten schriftlichen Quelle: vermutlich vor 1767
L:1/8
M:3/4
K:G
V:1 treble 
V:1
 d2 d(c/B/) c(B/A/) | Bd ce d2 | Bd ce d2 | BA/B/ G2 G,2 | d2 dc/B/ c(B/A/) | Bd ce d2 | Bd ce d2 | %7
 gf/e/ d4 :: e2 e/(c/B/c/) G/(c/B/c/) | eg ed/e/ c2 | d2 dB cA | BA/G/ A2 D2 | d2 dB cA | %13
 Bd ce d2 | Bd ce d2 | BA/B/ G2 G,2 :| %16

